X:29
T: Das Schloss in Oesterreich
N: A0027A
O: Europa, Mitteleuropa, Deutschland
N: Melodie bei Forster 1540 II. No. 77
R: Romanze, Ballade, Lied
M: 6/2
L: 1/4
K: F
F2F2G2 | A4B2c4A2 | F4z2
F2A2B2 | c4F2F4ED | E2F2D4C4 |
z2c2c2c2 | d3cd2c4B2 | A4z2
d2 | c2G2A2F2 | E2F2G2A2GFG2 | F6

@@@ Tune index: 29
